X:201
T:Oh Johnny!
M:4/4
L:1/4
K:D
F G ^G | "D"A2 G F | A2 G F | "A7"G F G E- | E4 |\
B2 A ^G | B2 A ^G | "D"A ^G A F- | F A B c | 
d2 d2 | "Bm/D"d2 B2 | "Em"G4- | "A7"G A B =c |\
^c2 c2 | c2 A2 | "D"z B B c | B A ^G =G | 
A2 G F | A2 G F | "A7"G F G E- | E4 |\
"G"B2 B2 | ^A2 B2 | "A7/F#7"c4- | "A7"c A B c | 
"D"d c d A- | A d c d | "E7"e ^d e B- | B B c B | "A7"c2 B A | c d e2 | "D"d4- | d |]

%%newpage

